; G-Code generated by Simplify3D(R) Version 4.1.2
; Jul 8, 2021 at 7:11:33 PM
; Settings Summary
;   processName,Process1
;   applyToModels,level_test_310
;   profileName,ZONESTAR Single Extruder 3D Printer(300x300x400) (modified)
;   profileVersion,2021-06-19 11:03:37
;   baseProfile,Default (modified)
;   printMaterial,PLA
;   printQuality,Medium
;   printExtruders,
;   extruderName,Primary Extruder
;   extruderToolheadNumber,0
;   extruderDiameter,0.4
;   extruderAutoWidth,0
;   extruderWidth,0.4
;   extrusionMultiplier,1
;   extruderUseRetract,1
;   extruderRetractionDistance,8
;   extruderExtraRestartDistance,0.02
;   extruderRetractionZLift,0
;   extruderRetractionSpeed,1800
;   extruderUseCoasting,0
;   extruderCoastingDistance,0.2
;   extruderUseWipe,1
;   extruderWipeDistance,1.5
;   primaryExtruder,0
;   layerHeight,0.2
;   topSolidLayers,2
;   bottomSolidLayers,2
;   perimeterOutlines,2
;   printPerimetersInsideOut,0
;   startPointOption,3
;   startPointOriginX,0
;   startPointOriginY,150
;   sequentialIslands,0
;   spiralVaseMode,0
;   firstLayerHeightPercentage,150
;   firstLayerWidthPercentage,100
;   firstLayerUnderspeed,0.5
;   useRaft,0
;   raftExtruder,0
;   raftTopLayers,3
;   raftBaseLayers,2
;   raftOffset,20
;   raftSeparationDistance,0
;   raftTopInfill,100
;   aboveRaftSpeedMultiplier,0.3
;   useSkirt,0
;   skirtExtruder,0
;   skirtLayers,1
;   skirtOutlines,10
;   skirtOffset,0
;   usePrimePillar,0
;   primePillarExtruder,999
;   primePillarWidth,12
;   primePillarLocation,7
;   primePillarSpeedMultiplier,1
;   useOozeShield,0
;   oozeShieldExtruder,999
;   oozeShieldOffset,2
;   oozeShieldOutlines,1
;   oozeShieldSidewallShape,1
;   oozeShieldSidewallAngle,30
;   oozeShieldSpeedMultiplier,1
;   infillExtruder,0
;   internalInfillPattern,Rectilinear
;   externalInfillPattern,Concentric
;   infillPercentage,20
;   outlineOverlapPercentage,15
;   infillExtrusionWidthPercentage,90
;   minInfillLength,5
;   infillLayerInterval,1
;   internalInfillAngles,45,-45
;   overlapInternalInfillAngles,0
;   externalInfillAngles,45,-45
;   generateSupport,0
;   supportExtruder,0
;   supportInfillPercentage,20
;   supportExtraInflation,0
;   supportBaseLayers,0
;   denseSupportExtruder,0
;   denseSupportLayers,0
;   denseSupportInfillPercentage,70
;   supportLayerInterval,1
;   supportHorizontalPartOffset,0.3
;   supportUpperSeparationLayers,1
;   supportLowerSeparationLayers,1
;   supportType,1
;   supportGridSpacing,4
;   maxOverhangAngle,60
;   supportAngles,0
;   temperatureName,Primary Extruder,bed
;   temperatureNumber,0,0
;   temperatureSetpointCount,1,1
;   temperatureSetpointLayers,1,1
;   temperatureSetpointTemperatures,195,60
;   temperatureStabilizeAtStartup,1,1
;   temperatureHeatedBed,0,1
;   fanLayers,1,3
;   fanSpeeds,0,100
;   blipFanToFullPower,0
;   adjustSpeedForCooling,1
;   minSpeedLayerTime,30
;   minCoolingSpeedSlowdown,50
;   increaseFanForCooling,0
;   minFanLayerTime,45
;   maxCoolingFanSpeed,100
;   increaseFanForBridging,0
;   bridgingFanSpeed,100
;   use5D,1
;   relativeEdistances,0
;   allowEaxisZeroing,1
;   independentExtruderAxes,0
;   includeM10123,0
;   stickySupport,1
;   applyToolheadOffsets,0
;   gcodeXoffset,0
;   gcodeYoffset,0
;   gcodeZoffset,0
;   overrideMachineDefinition,1
;   machineTypeOverride,0
;   strokeXoverride,310
;   strokeYoverride,310
;   strokeZoverride,400
;   originOffsetXoverride,0
;   originOffsetYoverride,0
;   originOffsetZoverride,0
;   homeXdirOverride,-1
;   homeYdirOverride,-1
;   homeZdirOverride,-1
;   flipXoverride,1
;   flipYoverride,-1
;   flipZoverride,1
;   toolheadOffsets,0,0|0,0|0,0|0,0|0,0|0,0
;   overrideFirmwareConfiguration,0
;   firmwareTypeOverride,RepRap (Marlin/Repetier/Sprinter)
;   GPXconfigOverride,r2
;   baudRateOverride,115200
;   overridePrinterModels,0
;   printerModelsOverride
;   startingGcode,G28 ; home all axes,G1 Z5 F3000 ; lift,G1 X5 Y10 F1500 ; move to prime,G1 Z0.2 F3000 ; get ready to prime,G92 E0 ; reset extrusion distance,G1 Y80 E10 F600 ; prime nozzle,G1 Y100 F5000 ; quick wipe,,
;   layerChangeGcode,
;   retractionGcode,
;   toolChangeGcode,
;   endingGcode,G28 YX,M106 S0 ; turn off FAN,M104 S0 ; turn off extruder,M140 S0 ; turn off bed,M84 ; disable motors
;   exportFileFormat,gcode
;   celebration,0
;   celebrationSong,Random Song
;   postProcessing,
;   defaultSpeed,2400
;   outlineUnderspeed,0.6
;   solidInfillUnderspeed,0.6
;   supportUnderspeed,0.8
;   rapidXYspeed,4200
;   rapidZspeed,480
;   minBridgingArea,50
;   bridgingExtraInflation,0
;   bridgingExtrusionMultiplier,1
;   bridgingSpeedMultiplier,1
;   useFixedBridgingAngle,0
;   fixedBridgingAngle,0
;   applyBridgingToPerimeters,0
;   filamentDiameters,1.75|1.75|1.75|1.75|1.75|1.75
;   filamentPricesPerKg,46|46|46|46|46|46
;   filamentDensities,1.25|1.25|1.25|1.25|1.25|1.25
;   useMinPrintHeight,0
;   minPrintHeight,0
;   useMaxPrintHeight,0
;   maxPrintHeight,129.81
;   useDiaphragm,0
;   diaphragmLayerInterval,20
;   robustSlicing,1
;   mergeAllIntoSolid,0
;   onlyRetractWhenCrossingOutline,0
;   retractBetweenLayers,0
;   useRetractionMinTravel,0
;   retractionMinTravel,3
;   retractWhileWiping,0
;   onlyWipeOutlines,0
;   avoidCrossingOutline,0
;   maxMovementDetourFactor,3
;   toolChangeRetractionDistance,8
;   toolChangeExtraRestartDistance,-0.2
;   toolChangeRetractionSpeed,1800
;   externalThinWallType,0
;   internalThinWallType,2
;   thinWallAllowedOverlapPercentage,10
;   singleExtrusionMinLength,1
;   singleExtrusionMinPrintingWidthPercentage,50
;   singleExtrusionMaxPrintingWidthPercentage,200
;   singleExtrusionEndpointExtension,0.2
;   horizontalSizeCompensation,0
G90
M82
M106 S0
M140 S60
M190 S60
M104 S195 T0
M109 S195 T0
G28 ; home all axes
G1 Z5 F3000 ; lift
G1 X5 Y10 F1500 ; move to prime
G1 Z0.2 F3000 ; get ready to prime
G92 E0 ; reset extrusion distance
G1 Y80 E10 F600 ; prime nozzle
G1 Y100 F5000 ; quick wipe
; process Process1
; layer 1, Z = 0.300
T0
G92 E0.0000
G1 E-8.0000 F1800
; feature outer perimeter
; tool H0.300 W0.400
G1 Z0.300 F480
G1 X15.622 Y150.939 F4200
G1 E0.0200 F1800
G92 E0.0000
G1 X16.275 Y148.566 E0.1228 F720
G1 X16.494 Y147.961 E0.1549
G1 X17.285 Y146.159 E0.2531
G1 X17.931 Y144.967 E0.3207
G1 X18.601 Y143.904 E0.3834
G1 X20.058 Y142.011 E0.5026
G1 X21.115 Y140.885 E0.5796
G1 X22.072 Y140.004 E0.6445
G1 X23.320 Y139.014 E0.7240
G1 X24.169 Y138.426 E0.7755
G1 X25.284 Y137.748 E0.8406
G1 X26.443 Y137.146 E0.9058
G1 X27.646 Y136.618 E0.9714
G1 X28.881 Y136.170 E1.0369
G1 X29.248 Y136.054 E1.0561
G1 X31.399 Y135.532 E1.1665
G1 X32.691 Y135.337 E1.2317
G1 X34.200 Y135.209 E1.3072
G1 X34.200 Y54.792 E5.3193
G1 X32.538 Y54.644 E5.4025
G1 X31.407 Y54.470 E5.4596
G1 X30.140 Y54.194 E5.5243
G1 X28.896 Y53.835 E5.5889
G1 X27.667 Y53.391 E5.6541
G1 X26.470 Y52.867 E5.7192
G1 X24.262 Y51.634 E5.8455
G1 X23.127 Y50.843 E5.9145
G1 X22.109 Y50.028 E5.9795
G1 X20.688 Y48.681 E6.0772
G1 X20.250 Y48.207 E6.1094
G1 X19.408 Y47.202 E6.1748
G1 X18.638 Y46.151 E6.2398
G1 X18.344 Y45.706 E6.2664
G1 X17.316 Y43.902 E6.3700
G1 X16.770 Y42.725 E6.4348
G1 X16.301 Y41.509 E6.4997
G1 X15.779 Y39.746 E6.5915
G1 X15.607 Y38.991 E6.6301
G1 X15.280 Y36.766 E6.7423
G1 X15.251 Y36.414 E6.7599
G1 X15.202 Y35.101 E6.8255
G1 X15.237 Y33.793 E6.8908
G1 X15.358 Y32.504 E6.9554
G1 X15.567 Y31.214 E7.0206
G1 X15.648 Y30.818 E7.0407
G1 X16.232 Y28.690 E7.1508
G1 X16.541 Y27.839 E7.1960
G1 X17.225 Y26.281 E7.2809
G1 X18.000 Y24.849 E7.3621
G1 X18.520 Y24.025 E7.4107
G1 X19.281 Y22.962 E7.4759
G1 X20.131 Y21.926 E7.5428
G1 X21.951 Y20.110 E7.6711
G1 X23.477 Y18.900 E7.7682
G1 X24.023 Y18.521 E7.8014
G1 X25.127 Y17.837 E7.8662
G1 X26.281 Y17.225 E7.9314
G1 X27.475 Y16.687 E7.9967
G1 X28.694 Y16.231 E8.0616
G1 X29.723 Y15.917 E8.1153
G1 X31.217 Y15.566 E8.1918
G1 X32.506 Y15.358 E8.2570
G1 X33.797 Y15.237 E8.3217
G1 X35.103 Y15.202 E8.3869
G1 X36.412 Y15.251 E8.4522
G1 X37.705 Y15.386 E8.5171
G1 X38.987 Y15.607 E8.5820
G1 X40.268 Y15.915 E8.6477
G1 X41.508 Y16.301 E8.7125
G1 X42.719 Y16.767 E8.7772
G1 X43.904 Y17.316 E8.8424
G1 X45.053 Y17.943 E8.9077
G1 X46.154 Y18.641 E8.9727
G1 X46.530 Y18.904 E8.9956
G1 X48.205 Y20.248 E9.1028
G1 X49.839 Y21.892 E9.2184
G1 X50.844 Y23.128 E9.2979
G1 X51.595 Y24.201 E9.3632
G1 X52.004 Y24.856 E9.4017
G1 X52.866 Y26.468 E9.4930
G1 X53.457 Y27.835 E9.5672
G1 X53.834 Y28.894 E9.6233
G1 X54.352 Y30.816 E9.7226
G1 X54.469 Y31.402 E9.7525
G1 X54.763 Y33.796 E9.8728
G1 X54.786 Y34.200 E9.8930
G1 X135.214 Y34.200 E13.9055
G1 X135.237 Y33.796 E13.9257
G1 X135.533 Y31.392 E14.0465
G1 X135.648 Y30.816 E14.0759
G1 X136.171 Y28.876 E14.1761
G1 X136.543 Y27.835 E14.2313
G1 X137.145 Y26.444 E14.3069
G1 X137.997 Y24.855 E14.3968
G1 X138.425 Y24.171 E14.4371
G1 X139.181 Y23.095 E14.5027
G1 X140.160 Y21.893 E14.5800
G1 X141.835 Y20.212 E14.6984
G1 X143.472 Y18.902 E14.8030
G1 X143.900 Y18.604 E14.8291
G1 X145.005 Y17.909 E14.8942
G1 X146.160 Y17.284 E14.9597
G1 X147.353 Y16.737 E15.0252
G1 X148.570 Y16.273 E15.0901
G1 X149.731 Y15.915 E15.1507
G1 X151.102 Y15.589 E15.2210
G1 X152.392 Y15.373 E15.2863
G1 X153.688 Y15.244 E15.3513
G1 X155.000 Y15.201 E15.4168
G1 X156.312 Y15.244 E15.4823
G1 X157.608 Y15.373 E15.5473
G1 X158.898 Y15.589 E15.6125
G1 X160.269 Y15.915 E15.6828
G1 X161.430 Y16.273 E15.7434
G1 X162.647 Y16.737 E15.8084
G1 X163.840 Y17.284 E15.8739
G1 X164.995 Y17.909 E15.9394
G1 X166.100 Y18.604 E16.0045
G1 X166.528 Y18.902 E16.0305
G1 X168.165 Y20.212 E16.1351
G1 X169.840 Y21.893 E16.2535
G1 X170.819 Y23.095 E16.3309
G1 X171.575 Y24.171 E16.3965
G1 X172.003 Y24.855 E16.4367
G1 X172.855 Y26.444 E16.5267
G1 X173.457 Y27.835 E16.6023
G1 X173.829 Y28.876 E16.6575
G1 X174.352 Y30.816 E16.7577
G1 X174.467 Y31.392 E16.7870
G1 X174.763 Y33.796 E16.9078
G1 X174.786 Y34.200 E16.9280
G1 X255.214 Y34.200 E20.9406
G1 X255.237 Y33.795 E20.9608
G1 X255.531 Y31.402 E21.0811
G1 X255.648 Y30.816 E21.1109
G1 X256.166 Y28.894 E21.2102
G1 X256.543 Y27.835 E21.2663
G1 X257.134 Y26.468 E21.3406
G1 X257.996 Y24.856 E21.4318
G1 X258.405 Y24.201 E21.4703
G1 X259.156 Y23.127 E21.5357
G1 X259.975 Y22.105 E21.6010
G1 X260.159 Y21.894 E21.6150
G1 X261.795 Y20.248 E21.7308
G1 X263.470 Y18.904 E21.8379
G1 X263.846 Y18.641 E21.8608
G1 X264.947 Y17.943 E21.9258
G1 X266.096 Y17.316 E21.9912
G1 X267.281 Y16.767 E22.0563
G1 X268.492 Y16.301 E22.1211
G1 X269.732 Y15.915 E22.1858
G1 X271.013 Y15.607 E22.2516
G1 X272.295 Y15.386 E22.3165
G1 X273.588 Y15.251 E22.3813
G1 X274.897 Y15.202 E22.4467
G1 X276.203 Y15.237 E22.5119
G1 X277.494 Y15.358 E22.5766
G1 X278.783 Y15.566 E22.6417
G1 X280.277 Y15.917 E22.7183
G1 X281.306 Y16.231 E22.7719
G1 X282.525 Y16.687 E22.8369
G1 X283.719 Y17.225 E22.9022
G1 X284.873 Y17.837 E22.9674
G1 X285.976 Y18.521 E23.0322
G1 X286.523 Y18.900 E23.0653
G1 X288.049 Y20.110 E23.1625
G1 X289.869 Y21.926 E23.2908
G1 X290.719 Y22.962 E23.3576
G1 X291.480 Y24.025 E23.4229
G1 X292.000 Y24.849 E23.4715
G1 X292.775 Y26.281 E23.5527
G1 X293.459 Y27.839 E23.6376
G1 X293.768 Y28.690 E23.6828
G1 X294.352 Y30.818 E23.7928
G1 X294.433 Y31.214 E23.8130
G1 X294.642 Y32.504 E23.8782
G1 X294.763 Y33.793 E23.9428
G1 X294.798 Y35.101 E24.0081
G1 X294.749 Y36.414 E24.0736
G1 X294.720 Y36.766 E24.0912
G1 X294.393 Y38.991 E24.2034
G1 X294.221 Y39.746 E24.2421
G1 X293.699 Y41.509 E24.3338
G1 X293.230 Y42.725 E24.3988
G1 X292.684 Y43.902 E24.4636
G1 X291.655 Y45.706 E24.5672
G1 X291.362 Y46.151 E24.5937
G1 X290.592 Y47.202 E24.6587
G1 X289.750 Y48.207 E24.7242
G1 X289.312 Y48.681 E24.7564
G1 X287.891 Y50.028 E24.8540
G1 X286.873 Y50.843 E24.9191
G1 X285.738 Y51.634 E24.9881
G1 X283.530 Y52.867 E25.1143
G1 X282.333 Y53.391 E25.1795
G1 X281.104 Y53.835 E25.2447
G1 X279.860 Y54.194 E25.3093
G1 X278.593 Y54.470 E25.3740
G1 X277.462 Y54.644 E25.4311
G1 X275.800 Y54.792 E25.5143
G1 X275.800 Y135.209 E29.5263
G1 X277.309 Y135.337 E29.6019
G1 X278.601 Y135.532 E29.6671
G1 X280.752 Y136.054 E29.7775
G1 X281.119 Y136.170 E29.7967
G1 X282.353 Y136.618 E29.8622
G1 X283.557 Y137.146 E29.9278
G1 X284.716 Y137.748 E29.9929
G1 X285.831 Y138.426 E30.0580
G1 X286.680 Y139.014 E30.1096
G1 X287.928 Y140.004 E30.1890
G1 X288.885 Y140.885 E30.2539
G1 X289.789 Y141.837 E30.3194
G1 X289.940 Y142.008 E30.3308
G1 X291.399 Y143.904 E30.4502
G1 X292.069 Y144.967 E30.5129
G1 X292.715 Y146.159 E30.5805
G1 X293.506 Y147.961 E30.6787
G1 X293.725 Y148.566 E30.7108
G1 X294.378 Y150.939 E30.8336
G1 X294.627 Y152.391 E30.9071
G1 X294.769 Y153.909 E30.9831
G1 X294.755 Y156.317 E31.1033
G1 X294.710 Y156.886 E31.1317
G1 X294.411 Y158.901 E31.2334
G1 X294.191 Y159.869 E31.2829
G1 X293.726 Y161.430 E31.3642
G1 X293.179 Y162.844 E31.4398
G1 X292.717 Y163.837 E31.4944
G1 X291.582 Y165.821 E31.6085
G1 X291.399 Y166.096 E31.6250
G1 X290.628 Y167.155 E31.6903
G1 X289.786 Y168.166 E31.7559
G1 X289.192 Y168.806 E31.7995
G1 X287.927 Y169.997 E31.8862
G1 X286.905 Y170.819 E31.9516
G1 X285.828 Y171.576 E32.0173
G1 X285.532 Y171.766 E32.0349
G1 X283.555 Y172.855 E32.1475
G1 X282.353 Y173.382 E32.2129
G1 X281.121 Y173.830 E32.2783
G1 X279.874 Y174.191 E32.3431
G1 X278.605 Y174.468 E32.4079
G1 X276.437 Y174.747 E32.5170
G1 X275.800 Y174.787 E32.5488
G1 X275.800 Y255.209 E36.5610
G1 X277.304 Y255.336 E36.6363
G1 X278.594 Y255.530 E36.7014
G1 X279.859 Y255.806 E36.7660
G1 X281.174 Y256.188 E36.8343
G1 X283.535 Y257.135 E36.9613
G1 X284.688 Y257.732 E37.0260
G1 X285.800 Y258.406 E37.0909
G1 X286.841 Y259.133 E37.1543
G1 X287.893 Y259.973 E37.2214
G1 X288.849 Y260.850 E37.2861
G1 X289.753 Y261.796 E37.3514
G1 X290.038 Y262.122 E37.3730
G1 X291.361 Y263.849 E37.4816
G1 X292.139 Y265.088 E37.5546
G1 X292.682 Y266.094 E37.6116
G1 X293.552 Y268.081 E37.7198
G1 X293.699 Y268.490 E37.7415
G1 X294.087 Y269.739 E37.8068
G1 X294.397 Y271.032 E37.8731
G1 X294.749 Y273.594 E38.0021
G1 X294.775 Y274.026 E38.0237
G1 X294.763 Y276.206 E38.1325
G1 X294.698 Y277.003 E38.1723
G1 X294.433 Y278.785 E38.2622
G1 X294.159 Y279.991 E38.3239
G1 X293.769 Y281.306 E38.3923
G1 X293.127 Y282.964 E38.4810
G1 X292.777 Y283.715 E38.5224
G1 X291.494 Y285.953 E38.6511
G1 X290.719 Y287.038 E38.7176
G1 X289.889 Y288.051 E38.7830
G1 X289.074 Y288.926 E38.8426
G1 X288.050 Y289.889 E38.9127
G1 X287.038 Y290.719 E38.9781
G1 X285.974 Y291.480 E39.0433
G1 X285.321 Y291.897 E39.0820
G1 X283.718 Y292.776 E39.1732
G1 X282.525 Y293.313 E39.2384
G1 X281.307 Y293.769 E39.3033
G1 X280.060 Y294.141 E39.3682
G1 X278.784 Y294.434 E39.4336
G1 X277.494 Y294.642 E39.4987
G1 X276.203 Y294.763 E39.5635
G1 X274.897 Y294.798 E39.6286
G1 X273.588 Y294.749 E39.6940
G1 X272.295 Y294.614 E39.7589
G1 X271.013 Y294.393 E39.8237
G1 X269.740 Y294.087 E39.8891
G1 X268.492 Y293.699 E39.9543
G1 X267.281 Y293.233 E40.0190
G1 X266.097 Y292.684 E40.0841
G1 X264.686 Y291.900 E40.1646
G1 X263.848 Y291.361 E40.2143
G1 X262.798 Y290.592 E40.2793
G1 X261.794 Y289.751 E40.3446
G1 X260.923 Y288.923 E40.4046
G1 X259.975 Y287.895 E40.4744
G1 X258.489 Y285.926 E40.5974
G1 X257.732 Y284.687 E40.6698
G1 X257.133 Y283.531 E40.7348
G1 X256.874 Y282.965 E40.7659
G1 X256.164 Y281.102 E40.8653
G1 X255.839 Y279.988 E40.9232
G1 X255.530 Y278.594 E40.9945
G1 X255.304 Y277.014 E41.0741
G1 X255.210 Y275.800 E41.1348
G1 X174.790 Y275.800 E45.1470
G1 X174.695 Y277.014 E45.2078
G1 X174.468 Y278.604 E45.2879
G1 X174.161 Y279.989 E45.3586
G1 X173.830 Y281.120 E45.4174
G1 X173.126 Y282.965 E45.5160
G1 X172.855 Y283.556 E45.5484
G1 X172.252 Y284.716 E45.6136
G1 X171.512 Y285.925 E45.6843
G1 X169.995 Y287.930 E45.8098
G1 X169.077 Y288.924 E45.8773
G1 X168.165 Y289.787 E45.9399
G1 X167.155 Y290.628 E46.0055
G1 X166.097 Y291.398 E46.0708
G1 X165.317 Y291.899 E46.1171
G1 X163.839 Y292.716 E46.2013
G1 X162.647 Y293.263 E46.2667
G1 X161.430 Y293.727 E46.3317
G1 X160.178 Y294.110 E46.3970
G1 X158.899 Y294.411 E46.4626
G1 X157.608 Y294.627 E46.5279
G1 X156.312 Y294.756 E46.5928
G1 X155.000 Y294.798 E46.6583
G1 X153.688 Y294.756 E46.7239
G1 X152.392 Y294.627 E46.7888
G1 X151.101 Y294.411 E46.8541
G1 X149.822 Y294.110 E46.9197
G1 X148.570 Y293.727 E46.9850
G1 X147.353 Y293.263 E47.0499
